X:13
T:"Cup O' Whiskey Tea" by Elizabeth (Clark) Zekley  1990
D:A little spot will do you.
S:Original Tune
R:Single Jig
O:Mendocino California
M:12/8
Q:250
F:http://larkcamp.com/meabc.txt
K:G
d3 cAA GAB AB^c|d3 AFF BGE GBe|d3 cAc BGB AB^c|1dcA GEA DED D ^c:|2dcA GEA DED D2 e|:~f3 gec BAG AB^c|d3 cAc BGB AB^c|dcA GEA DED D2 e|fdd cAA GAB A^ce|~f3 gec BAG AB^c|def gec afd bag|fed cAG Ad^c d3|]
